X: 73
T: No_164_The_Robin_Brings_the_Cold_Wind.krn
N: Derived from No_164_The_Robin_Brings_the_Cold_Wind.krn
%%abc-version 2.0
%%abcx-abcm2ps-target-version 5.9.1 (29 Sep 2008)
%%abc-creator hum2abc beta
%%abcx-conversion-date 2019/03/15 08:37:56
%%humdrum-veritas 4260345625
%%humdrum-veritas-data 2496611700
%%linebreak <none>
%%barnumbers 0
L: 1/8
M: 2/4
K: Bb clef=bass
F,F, [I:setbarnb 1]| 
CC CC | 
C2G,G, ||  
[M:3/4]B,G,B,2B,G, ||  
[M:2/4]B,2CG, ||  
[M:3/8]G,F,F, ||  
[M:2/4]F,2F,F, | 
F,2z2 ||  
[M:3/4]B,B, B,B, B,B, | 
G,2D,G, G,G, | 
F,4F,F, ||  
[M:2/4]F,2z2 | 
F,F, F,F, | 
F,F, F,F, | 
F,2z2 |]  



